svgs/duotone/cloud-music.svg

<svg xmlns="http://www.w3.org/2000/svg" viewBox="0 0 640 512"><!--! Font Awesome Pro 6.4.0 by @fontawesome - https://fontawesome.com License - https://fontawesome.com/license (Commercial License) Copyright 2023 Fonticons, Inc. --><defs><style>.fa-secondary{opacity:.4}</style></defs><path class="fa-primary" d="M372.8 177.1c20.9-7.8 43.2 7.6 43.2 30V336v0c0 22.1-21.5 40-48 40s-48-17.9-48-40s21.5-40 48-40c5.6 0 11 .8 16 2.3V239.1l-96 36V368v0c0 22.1-21.5 40-48 40s-48-17.9-48-40s21.5-40 48-40c5.6 0 11 .8 16 2.3V243.1c0-13.3 8.3-25.3 20.8-30l96-36z"/><path class="fa-secondary" d="M144 480C64.5 480 0 415.5 0 336c0-62.8 40.2-116.2 96.2-135.9c-.1-2.7-.2-5.4-.2-8.1c0-88.4 71.6-160 160-160c59.3 0 111 32.2 138.7 80.2C409.9 102 428.3 96 448 96c53 0 96 43 96 96c0 12.2-2.3 23.8-6.4 34.6C596 238.4 640 290.1 640 352c0 70.7-57.3 128-128 128H144zM416 207.1c0-22.3-22.3-37.8-43.2-30l-96 36c-12.5 4.7-20.8 16.6-20.8 30v87.2c-5-1.5-10.4-2.3-16-2.3c-26.5 0-48 17.9-48 40s21.5 40 48 40s48-17.9 48-40v0V275.1l96-36v59.2c-5-1.5-10.4-2.3-16-2.3c-26.5 0-48 17.9-48 40s21.5 40 48 40s48-17.9 48-40v0V207.1z"/></svg>

<svg xmlns="http://www.w3.org/2000/svg" viewBox="0 0 640 512"><!--! Font Awesome Pro 6.3.0 by @fontawesome - https://fontawesome.com License - https://fontawesome.com/license (Commercial License) Copyright 2023 Fonticons, Inc. --><defs><style>.fa-secondary{opacity:.4}</style></defs><path class="fa-primary" d="M372.8 177.1C393.7 169.3 416 184.7 416 207.1V336C416 358.1 394.5 376 368 376C341.5 376 320 358.1 320 336C320 313.9 341.5 296 368 296C373.6 296 378.1 296.8 384 298.3V239.1L288 275.1V368C288 390.1 266.5 408 240 408C213.5 408 192 390.1 192 368C192 345.9 213.5 328 240 328C245.6 328 250.1 328.8 256 330.3V243.1C256 229.7 264.3 217.8 276.8 213.1L372.8 177.1z"/><path class="fa-secondary" d="M144 480C64.47 480 0 415.5 0 336C0 273.2 40.17 219.8 96.2 200.1C96.07 197.4 96 194.7 96 192C96 103.6 167.6 32 256 32C315.3 32 367 64.25 394.7 112.2C409.9 101.1 428.3 96 448 96C501 96 544 138.1 544 192C544 204.2 541.7 215.8 537.6 226.6C596 238.4 640 290.1 640 352C640 422.7 582.7 480 512 480H144zM416 207.1C416 184.7 393.7 169.3 372.8 177.1L276.8 213.1C264.3 217.8 256 229.7 256 243.1V330.3C250.1 328.8 245.6 328 240 328C213.5 328 192 345.9 192 368C192 390.1 213.5 408 240 408C266.5 408 288 390.1 288 368V275.1L384 239.1V298.3C378.1 296.8 373.6 296 368 296C341.5 296 320 313.9 320 336C320 358.1 341.5 376 368 376C394.5 376 416 358.1 416 336V207.1z"/></svg>
